X: 34972
T: Roddie C's
R: reel
M: 4/4
K: Amajor
|:cedB cAAc|afec fBBc|ecfc ecBc|afec A2 A2:|
|:afec AAAc|dBcA B=GGB|afec fBBc|ecBc A2 A2:|

